X:1
T:Title
%%score { ( 1 4 ) | ( 2 3 ) }
L:1/8
M:4/4
K:Bb
V:1 treble nm="Grand Piano"
V:4 treble 
V:2 bass 
V:3 bass 
V:1
 z4 z2[Q:1/4=100] .[F,DF]2 | [Fd]3 [Fc] [B,FB]2 .[B,FB]2 | [FA]3 G [B,EG]2 [EGc]2 | B2 B2 A2 GA | %4
[M:3/4] [B,DB]6 |[M:1/4] F z |[M:4/4] [Fd]3 [Fc] [B,FB]2 .[B,FB]2 | [FA]3 G [B,EG]2 [EGc]2 | %8
 B2 B2 A2 GA |[M:3/4] [B,DB]6 |[M:1/4] [B,G]2 |[M:4/4] [EGc]3 [EGc] [DG=B]2 G-[Gd] | %12
 [Ge]4 [Fc]2 [Fc]2 | [FB]2 [Fc]2 [FB]2 AB |[M:3/4] c6 |[M:1/4] F z | %16
[M:4/4] [Fd]3 [Fc] [B,FB]2 .[B,FB]2 | [FA]3 G [B,EG]2 [EGc]2 | B2 B2 A2 GA |[M:3/4] [DB]6 | %20
[M:1/4] B2 |[M:4/4] d4 B2 e2 | d2 [Gc][GB] BAGA |[M:7/4] [DB]6 z2 z2 z4 |[M:4/4] [EB]8 | [DB]8 |] %26
V:2
 z4 z2 z B | [B,,B,]3 [C,A,] D,2 z A | z2 z E E,2 C,2 | [F,DF]2 [F,DF]2 [F,CF]2 [F,CE]2 | %4
[M:3/4] B,,6 |[M:1/4] z[K:treble] B |[M:4/4][K:bass] [B,,B,]3 [C,A,] D,2 z A | z2 z E E,2 C,2 | %8
 [F,DF]2 [F,DF]2 [F,CF]2 [F,CE]2 |[M:3/4] B,,6 |[M:1/4] E,2 |[M:4/4] C,3 E, G,F,E,[D,=B,] | %12
 [C,C]4 [F,A,]2 [F,A,]2 | z4 z2 .C2 |[M:3/4] [F,A,F]6 |[M:1/4] z[K:treble] B | %16
[M:4/4][K:bass] [B,,B,]3 [C,A,] D,2 z A | z2 z E E,2 C,2 | [F,DF]2 [F,DF]2 [F,CF]2 [F,CE]2 | %19
[M:3/4] [B,,B,]6 |[M:1/4][K:treble] [B,DF]2 |[M:4/4] [B,FB]4 [B,DF]2 [A,CF]2 | %22
 [B,DF]2[K:bass] [E,E][E,D] [F,CF]2 [F,B,E][F,CE] |[M:7/4] [B,,B,]6 z2 z2 z4 |[M:4/4] [E,G,]8 | %25
 [B,,F,]8 |] %26
V:3
 z4 z2 B,,2 | z4 z2 D,2 | E,4 z4 | x8 |[M:3/4] x6 |[M:1/4] B,,2[K:treble] | %6
[M:4/4][K:bass] z4 z2 D,2 | E,4 z4 | x8 |[M:3/4] x6 |[M:1/4] x2 |[M:4/4] x8 | x8 | %13
 [D,B,]2 [E,A,]2 [D,B,]2 [G,=E]-[G,B,E] |[M:3/4] x6 |[M:1/4] B,,2[K:treble] | %16
[M:4/4][K:bass] z4 z2 D,2 | E,4 z4 | x8 |[M:3/4] x6 |[M:1/4][K:treble] x2 |[M:4/4] x8 | %22
 x2[K:bass] x6 |[M:7/4] x14 |[M:4/4] x8 | x8 |] %26
V:4
 x8 | x8 | B,4 z4 | x8 |[M:3/4] x6 |[M:1/4] [F,D]2 |[M:4/4] x8 | B,4 z4 | x8 |[M:3/4] x6 | %10
[M:1/4] x2 |[M:4/4] z4 z2 .[Cc]2 | x8 | x8 |[M:3/4] x6 |[M:1/4] [F,D]2 |[M:4/4] x8 | B,4 z4 | x8 | %19
[M:3/4] x6 |[M:1/4] x2 |[M:4/4] x8 | x8 |[M:7/4] x14 |[M:4/4] x8 | x8 |] %26

